X:435
T:Reel 435
M:4/4
K:Emin
L:1/8
BA|GE^DE B,EDE|FD (3DDD FDAD|GE^DE B,EDE|AFdF ^DFFA:||2GAGF ^D2FF|GBAF E2|:E^D|B,EGE FGAFDE|FADA FDDF|E^DEF GFGA|B^cdB A2:|AF|E2ed edBe|dAGA BAFD|E2E^D EFGA|BcdB AdBd|e2ec d2dB|AFDE FAFF|E^DEF GFGA|BeBA GEE|
